src/pos-icons/remote-tv-off.svg

<svg height="24" viewBox="0 0 24 24" width="24" xmlns="http://www.w3.org/2000/svg"><path d="m2 5.27 1.28-1.27 16.72 16.72-1.27 1.28-1.73-1.75c-.14.99-1 1.75-2 1.75h-6a2 2 0 0 1 -2-2v-9.73zm7-3.27h2v2h2v-2h2a2 2 0 0 1 2 2v11.18l-4-4v-1.18h2v-2h-2v-2h-2v2h-1.18l-2.82-2.82v-1.18a2 2 0 0 1 2-2m0 18h2v-2h-2zm4 0h2v-1.73l-.27-.27h-1.73zm-4-6v2h2v-1.73l-.27-.27z"/></svg>

<?xml version="1.0" encoding="UTF-8"?><!DOCTYPE svg PUBLIC "-//W3C//DTD SVG 1.1//EN" "http://www.w3.org/Graphics/SVG/1.1/DTD/svg11.dtd"><svg xmlns="http://www.w3.org/2000/svg" xmlns:xlink="http://www.w3.org/1999/xlink" version="1.1" id="mdi-remote-tv-off" width="24" height="24" viewBox="0 0 24 24"><path d="M2,5.27L3.28,4L20,20.72L18.73,22L17,20.25C16.86,21.24 16,22 15,22H9A2,2 0 0,1 7,20V10.27L2,5.27M9,2H11V4H13V2H15A2,2 0 0,1 17,4V15.18L13,11.18V10H15V8H13V6H11V8H9.82L7,5.18V4A2,2 0 0,1 9,2M9,20H11V18H9V20M13,20H15V18.27L14.73,18H13V20M9,14V16H11V14.27L10.73,14H9Z" /></svg>
